public/avatar/hat/10.svg

<svg xmlns:xlink="http://www.w3.org/1999/xlink" height="92.9" width="100.7" xmlns="http://www.w3.org/2000/svg"><use height="34" transform="translate(17.55 32.5)" width="42.15" xlink:href="#a"/><defs><g id="a" fill-rule="evenodd"><path d="M20.25-1.65h-.05.05q.55 2.1.65 4.35v1.55q-.15 8-6.2 12.05l-.05-.15v-.1l-.1-.35q-1.4-6.4-5.1-10.5Q7.3 2.75 4.9 2.25L1 3.4q-1.2.2-3.5-.7-2.35-.95-2.75-.7-3.25 1.9-5.3 4.75-2.45 3.4-4.85 10l.35-1.05q-6.05-3.85-6.05-11.95 0-8.7 6.15-14.85T-.1-17.25q8.7 0 14.85 6.15 4.15 4.15 5.5 9.45" transform="translate(21.1 17.25)"/><path d="M20.9 4.25V2.7q.3.7 0 1.55" fill="#333" transform="translate(21.1 17.25)"/></g></defs></svg>

<?xml version="1.0" encoding="UTF-8" standalone="no"?>
<svg xmlns:xlink="http://www.w3.org/1999/xlink" height="92.9px" width="100.7px" xmlns="http://www.w3.org/2000/svg">
  <g transform="matrix(1.0, 0.0, 0.0, 1.0, 38.65, 49.75)">
    <use height="34.0" transform="matrix(1.0, 0.0, 0.0, 1.0, -21.1, -17.25)" width="42.15" xlink:href="#shape0"/>
  </g>
  <defs>
    <g id="shape0" transform="matrix(1.0, 0.0, 0.0, 1.0, 21.1, 17.25)">
      <path d="M20.25 -1.65 L20.2 -1.65 20.25 -1.65 Q20.8 0.45 20.9 2.7 L20.9 3.75 20.9 4.25 Q20.75 12.25 14.7 16.3 L14.65 16.15 14.65 16.05 14.55 15.7 Q13.15 9.3 9.45 5.2 7.3 2.75 4.9 2.25 L1.0 3.4 Q-0.2 3.6 -2.5 2.7 -4.85 1.75 -5.25 2.0 -8.5 3.9 -10.55 6.75 -13.0 10.15 -15.4 16.75 L-15.05 15.7 Q-21.1 11.85 -21.1 3.75 -21.1 -4.95 -14.95 -11.1 -8.8 -17.25 -0.1 -17.25 8.6 -17.25 14.75 -11.1 18.9 -6.95 20.25 -1.65" fill="#000000" fill-rule="evenodd" stroke="none"/>
      <path d="M20.9 4.25 L20.9 3.75 20.9 2.7 Q21.2 3.4 20.9 4.25" fill="#333333" fill-rule="evenodd" stroke="none"/>
    </g>
  </defs>
</svg>
